!!!OTL: 146. Der Edelmann im Habersack.
!!!ODT: 1836
!!!ARE: Europa, Mitteleuropa, Deutschland, Brandenburg
!!!SCT: E0146
!!!TXL: @@DE
!!!YEM: Copyright 1995, estate of Helmut Schaffrath.
**kern	**text
*ICvox	*
*M2/4	*
*k[b-e-]	*
*B-:	*
!LO:TX:a:t=Einʒelne.	!
!LO:TX:a:t=Mäßig geſchwind.	!
!LO:TX:a:t=Aus dem Brandenburgiſchen 1836.	!
{8f	Es
=1	=1
8b-	wohnt
8b-	ein
8b-	Müller
8b-	an
=2	=2
8b-/	je-
8g	-nem
4f}	Teich,
=3	=3
!LO:TX:a:t=Alle.	!
{4ee-	lauf,
8dd	Mül-
8dd	-ler
=4	=4
4cc	lauf!
8r}	.
!LO:TX:a:t=Einʒelne.	!
{8cc	der
=5	=5
8ff	hatt'
8cc	eine
8cc	Tochter
8b-	und
=6	=6
8a	die
8g	war
4f}	reich.
=7	=7
!LO:TX:a:t=Chor.	!
{8b-	Lauf,
16b-	Mül-
16b-	-ler
8b-	lauf,
16b-	wie
16b-	die
=8	=8
16b-	Ka-
16b-	-tʒe
16b-	nach
16b-	der
8b-}	Maus!
{8b-	potz
=9	=9
16cc	Hüh-
16b-	-ner-
16a	-wet-
16b-/	-ter,
16cc	Mül-
16b-	-ler,
16a	Mül-
16b-/	-ler,
=10	=10
8cc	lauf
8cc	lauf
8cc}	lauf
{8ff	mein
=11	=11
8dd	lie-
8dd	-ber
8cc/	Mül-
8cc/	-ler
=12	=12
(8.b-/L	lauf,
16dd	.
8ffJ)}	.
{8ee-/	mein
=13	=13
8dd	lie-
8dd	-ber
8cc	Mül-
8cc	-ler
=14	=14
4b-	lauf.
8r}	.
==	==
!!!AGN: erzaehlendes Volks - Lied, Scherz, Schwank, Ballade ?
!!!ONB: ESAC (Essen Associative Code) Database: ERK1
!!!AMT: simple duple
!!!AIN: vox
!!!EED: Helmut Schaffrath
!!!EEV: 1.0
!!!GTL: Schwaenke in Liedform (scherzhafte Erzaehlungen, mitunter satirisch)
!!!URL-scan: https://rosdok.uni-rostock.de/mcrviewer/recordIdentifier/rosdok_ppn745146120/iview2/phys_0543.iview2?x=-725.3371323957147&y=-16.23323948541656&scale=0.4088357090269527&rotation=0&layout=singlePageLayout
!!!ENC: Anna Maria Matuszewska
!!!EEV: 2024/03/12
*-	*-
